svgs/light/circle-4.svg

<svg xmlns="http://www.w3.org/2000/svg" viewBox="0 0 512 512"><!-- Font Awesome Pro 6.0.0-alpha2 by @fontawesome - https://fontawesome.com License - https://fontawesome.com/license (Commercial License) --><path d="M336 288H320V208C320 199.156 312.844 192 304 192S288 199.156 288 208V288H183.625L238.859 149.938C242.141 141.75 238.141 132.438 229.937 129.156C221.812 125.875 212.406 129.844 209.141 138.062L145.141 298.062C143.172 303 143.781 308.562 146.75 312.969C149.734 317.375 154.688 320 160 320H288V368C288 376.844 295.156 384 304 384S320 376.844 320 368V320H336C344.844 320 352 312.844 352 304S344.844 288 336 288ZM256 16C123.451 16 16 123.451 16 256S123.451 496 256 496S496 388.549 496 256S388.549 16 256 16ZM256 464C141.309 464 48 370.691 48 256S141.309 48 256 48S464 141.309 464 256S370.691 464 256 464Z"/></svg>

<svg xmlns="http://www.w3.org/2000/svg" viewBox="0 0 512 512"><!--! Font Awesome Pro 6.0.0-alpha3 by @fontawesome - https://fontawesome.com License - https://fontawesome.com/license (Commercial License) --><path d="M256 0C114.6 0 0 114.6 0 256s114.6 256 256 256s256-114.6 256-256S397.4 0 256 0zM256 480c-123.5 0-224-100.5-224-224s100.5-224 224-224s224 100.5 224 224S379.5 480 256 480zM336 288H320V208C320 199.2 312.8 192 304 192S288 199.2 288 208V288H183.6l55.23-138.1c3.281-8.188-.7187-17.5-8.922-20.78C221.8 125.9 212.4 129.8 209.1 138.1l-64 160C143.2 303 143.8 308.6 146.8 312.1C149.7 317.4 154.7 320 160 320h128v48c0 8.844 7.156 16 16 16s16-7.156 16-16V320h16c8.844 0 16-7.156 16-16S344.8 288 336 288z"/></svg>
